build/images/Parallel Labs _ UI_UX Design Lab based in Bangalore,India.home_files/instagram.svg

<?xml version="1.0" encoding="UTF-8" standalone="no"?>
<svg width="20px" height="20px" viewBox="0 0 20 20" version="1.1" xmlns="http://www.w3.org/2000/svg" xmlns:xlink="http://www.w3.org/1999/xlink" xmlns:sketch="http://www.bohemiancoding.com/sketch/ns">
    <!-- Generator: bin/sketchtool 1.4 (305) - http://www.bohemiancoding.com/sketch -->
    <title>background + instagram-icon</title>
    <desc>Created with bin/sketchtool.</desc>
    <defs>
        <linearGradient x1="50%" y1="0%" x2="50%" y2="100%" id="linearGradient-1">
            <stop stop-color="#5980A2" offset="0%"></stop>
            <stop stop-color="#3A5F82" offset="100%"></stop>
        </linearGradient>
        <filter x="-50%" y="-50%" width="200%" height="200%" filterUnits="objectBoundingBox" id="filter-2">
            <feOffset dx="0" dy="1" in="SourceAlpha" result="shadowOffsetOuter1"></feOffset>
            <feGaussianBlur stdDeviation="0" in="shadowOffsetOuter1" result="shadowBlurOuter1"></feGaussianBlur>
            <feColorMatrix values="0 0 0 0 0   0 0 0 0 0   0 0 0 0 0  0 0 0 0.35 0" in="shadowBlurOuter1" type="matrix" result="shadowMatrixOuter1"></feColorMatrix>
            <feMerge>
                <feMergeNode in="shadowMatrixOuter1"></feMergeNode>
                <feMergeNode in="SourceGraphic"></feMergeNode>
            </feMerge>
        </filter>
    </defs>
    <g id="Page-1" stroke="none" stroke-width="1" fill="none" fill-rule="evenodd" sketch:type="MSPage">
        <g id="Home" sketch:type="MSArtboardGroup" transform="translate(-670.000000, -4310.000000)">
            <g id="Footer" sketch:type="MSLayerGroup" transform="translate(0.000000, 4010.000000)">
                <g id="Social" transform="translate(590.000000, 300.000000)" sketch:type="MSShapeGroup">
                    <g id="background-+-instagram-icon" transform="translate(80.000000, 0.000000)">
                        <rect id="background" fill="url(#linearGradient-1)" x="0" y="0" width="20" height="20"></rect>
                        <path d="M2,15.9479167 L2,4.05208333 C2,3.48958052 2.20138687,3.00694646 2.60416667,2.60416667 C3.00694646,2.20138687 3.48958052,2 4.05208333,2 L15.9479167,2 C16.5104195,2 16.9930535,2.20138687 17.3958333,2.60416667 C17.7986131,3.00694646 18,3.48958052 18,4.05208333 L18,15.9479167 C18,16.5104195 17.7986131,16.9930535 17.3958333,17.3958333 C16.9930535,17.7986131 16.5104195,18 15.9479167,18 L4.05208333,18 C3.48958052,18 3.00694646,17.7986131 2.60416667,17.3958333 C2.20138687,16.9930535 2,16.5104195 2,15.9479167 Z M3.78125,15.5208333 C3.78125,15.7013898 3.84201328,15.8524299 3.96354167,15.9739583 C4.08507005,16.0954867 4.23611021,16.15625 4.41666667,16.15625 L15.5520833,16.15625 C15.7256953,16.15625 15.8749994,16.0954867 16,15.9739583 C16.1250006,15.8524299 16.1875,15.7013898 16.1875,15.5208333 L16.1875,8.77083333 L14.78125,8.77083333 C14.9201396,9.20833552 14.9895833,9.66319208 14.9895833,10.1354167 C14.9895833,11.010421 14.7673633,11.8177046 14.3229167,12.5572917 C13.87847,13.2968787 13.2743094,13.8819423 12.5104167,14.3125 C11.746524,14.7430577 10.913199,14.9583333 10.0104167,14.9583333 C8.64235427,14.9583333 7.47222708,14.4878519 6.5,13.546875 C5.52777292,12.6058981 5.04166667,11.4687567 5.04166667,10.1354167 C5.04166667,9.66319208 5.11111042,9.20833552 5.25,8.77083333 L3.78125,8.77083333 L3.78125,15.5208333 Z M6.80208333,9.96875 C6.80208333,10.8298654 7.1163163,11.5642331 7.74479167,12.171875 C8.37326703,12.7795169 9.12846781,13.0833333 10.0104167,13.0833333 C10.89931,13.0833333 11.657983,12.7795169 12.2864583,12.171875 C12.9149337,11.5642331 13.2291667,10.8298654 13.2291667,9.96875 C13.2291667,9.10763458 12.9149337,8.37326693 12.2864583,7.765625 C11.657983,7.15798307 10.89931,6.85416667 10.0104167,6.85416667 C9.12846781,6.85416667 8.37326703,7.15798307 7.74479167,7.765625 C7.1163163,8.37326693 6.80208333,9.10763458 6.80208333,9.96875 Z M12.9375,6.21875 C12.9375,6.4201399 13.0069438,6.59027708 13.1458333,6.72916667 C13.2847229,6.86805625 13.4548601,6.9375 13.65625,6.9375 L15.46875,6.9375 C15.6701399,6.9375 15.8402771,6.86805625 15.9791667,6.72916667 C16.1180563,6.59027708 16.1875,6.4201399 16.1875,6.21875 L16.1875,4.5 C16.1875,4.30555458 16.1180563,4.13715349 15.9791667,3.99479167 C15.8402771,3.85242984 15.6701399,3.78125 15.46875,3.78125 L13.65625,3.78125 C13.4548601,3.78125 13.2847229,3.85242984 13.1458333,3.99479167 C13.0069438,4.13715349 12.9375,4.30555458 12.9375,4.5 L12.9375,6.21875 Z" id="instagram-icon" fill="#FFFFFF" filter="url(#filter-2)"></path>
                    </g>
                </g>
            </g>
        </g>
    </g>
</svg>

<svg width="20" height="20" viewBox="0 0 20 20" xmlns="http://www.w3.org/2000/svg"><title>background + instagram-icon</title><defs><linearGradient x1="50%" y1="0%" x2="50%" y2="100%" id="a"><stop stop-color="#5980A2" offset="0%"/><stop stop-color="#3A5F82" offset="100%"/></linearGradient><filter x="-50%" y="-50%" width="200%" height="200%" filterUnits="objectBoundingBox" id="b"><feOffset dy="1" in="SourceAlpha" result="shadowOffsetOuter1"/><feGaussianBlur in="shadowOffsetOuter1" result="shadowBlurOuter1"/><feColorMatrix values="0 0 0 0 0 0 0 0 0 0 0 0 0 0 0 0 0 0 0.35 0" in="shadowBlurOuter1" result="shadowMatrixOuter1"/><feMerge><feMergeNode in="shadowMatrixOuter1"/><feMergeNode in="SourceGraphic"/></feMerge></filter></defs><g fill="none" fill-rule="evenodd"><path fill="url(#a)" d="M0 0h20v20H0z"/><path d="M2 15.948V4.052c0-.562.201-1.045.604-1.448A1.975 1.975 0 0 1 4.052 2h11.896c.562 0 1.045.201 1.448.604.403.403.604.886.604 1.448v11.896c0 .562-.201 1.045-.604 1.448a1.975 1.975 0 0 1-1.448.604H4.052a1.975 1.975 0 0 1-1.448-.604A1.975 1.975 0 0 1 2 15.948zm1.781-.427c0 .18.061.331.183.453a.615.615 0 0 0 .453.182h11.135a.62.62 0 0 0 .448-.182.606.606 0 0 0 .188-.453V8.77H14.78c.14.437.209.892.209 1.364 0 .875-.223 1.683-.667 2.422a4.86 4.86 0 0 1-1.813 1.755 5.005 5.005 0 0 1-2.5.646c-1.368 0-2.538-.47-3.51-1.411-.972-.941-1.458-2.078-1.458-3.412 0-.472.07-.927.208-1.364H3.781v6.75zm3.021-5.552c0 .86.314 1.595.943 2.203a3.143 3.143 0 0 0 2.265.911c.89 0 1.648-.303 2.276-.911.629-.608.943-1.342.943-2.203 0-.861-.314-1.596-.943-2.203-.628-.608-1.387-.912-2.276-.912-.882 0-1.637.304-2.265.912-.629.607-.943 1.342-.943 2.203zm6.136-3.75c0 .201.069.371.208.51a.694.694 0 0 0 .51.208h1.813c.201 0 .371-.069.51-.208a.694.694 0 0 0 .209-.51V4.5a.7.7 0 0 0-.209-.505.686.686 0 0 0-.51-.214h-1.813a.686.686 0 0 0-.51.214.7.7 0 0 0-.209.505v1.719z" fill="#FFF" filter="url(#b)"/></g></svg>
